svg/fluentui-system-icons/ic_fluent_checkmark_lock_24_filled.svg

<svg width="24" height="24" viewBox="0 0 24 24" fill="none" xmlns="http://www.w3.org/2000/svg">
<path d="M12 2C17.5228 2 22 6.47715 22 12C22 12.4265 21.9733 12.8468 21.9215 13.2593C21.5816 11.682 20.1789 10.5 18.5 10.5C16.567 10.5 15 12.067 15 14V14.05C13.8589 14.2816 13 15.2905 13 16.5V21.5C13 21.6524 13.0136 21.8017 13.0398 21.9466C12.698 21.9819 12.3511 22 12 22C6.47715 22 2 17.5228 2 12C2 6.47715 6.47715 2 12 2ZM15.2197 8.96967L10.75 13.4393L8.78033 11.4697C8.48744 11.1768 8.01256 11.1768 7.71967 11.4697C7.42678 11.7626 7.42678 12.2374 7.71967 12.5303L10.2197 15.0303C10.5126 15.3232 10.9874 15.3232 11.2803 15.0303L16.2803 10.0303C16.5732 9.73744 16.5732 9.26256 16.2803 8.96967C15.9874 8.67678 15.5126 8.67678 15.2197 8.96967ZM18.5 11.5C19.8807 11.5 21 12.6193 21 14V15H21.5C21.5141 15 21.5281 15.0002 21.542 15.0006C22.351 15.0228 23 15.6856 23 16.5V21.5C23 22.3284 22.3284 23 21.5 23H15.5C14.7722 23 14.1655 22.4817 14.0288 21.7941C14.0099 21.699 14 21.6006 14 21.5V16.5C14 15.6716 14.6716 15 15.5 15H16V14C16 12.6193 17.1193 11.5 18.5 11.5ZM18.1065 19.9196C18.2273 19.9713 18.3603 20 18.5 20C19.0523 20 19.5 19.5523 19.5 19C19.5 18.8863 19.481 18.777 19.4461 18.6752C19.3112 18.2823 18.9386 18 18.5 18C17.9477 18 17.5 18.4477 17.5 19C17.5 19.4126 17.7499 19.7668 18.1065 19.9196ZM17.5 14V15H19.5V14C19.5 13.4477 19.0523 13 18.5 13C17.9477 13 17.5 13.4477 17.5 14Z" fill="#212121"/>
</svg>

<svg xmlns="http://www.w3.org/2000/svg" width="24" height="24"><path d="M12 2c5.523 0 10 4.477 10 10 0 .427-.027.847-.078 1.26A3.501 3.501 0 0 0 15 14v.05a2.5 2.5 0 0 0-2 2.45v5c0 .152.014.302.04.447A10.12 10.12 0 0 1 12 22C6.477 22 2 17.523 2 12S6.477 2 12 2Zm3.22 6.97-4.47 4.47-1.97-1.97a.75.75 0 0 0-1.06 1.06l2.5 2.5a.75.75 0 0 0 1.06 0l5-5a.75.75 0 1 0-1.06-1.06Zm3.28 2.53A2.5 2.5 0 0 1 21 14v1h.542A1.5 1.5 0 0 1 23 16.5v5a1.5 1.5 0 0 1-1.5 1.5h-6a1.5 1.5 0 0 1-1.5-1.5v-5a1.5 1.5 0 0 1 1.5-1.5h.5v-1a2.5 2.5 0 0 1 2.5-2.5Zm-.393 8.42a1 1 0 1 0 .787-1.84 1 1 0 0 0-.787 1.84ZM17.5 14v1h2v-1a1 1 0 1 0-2 0Z"/></svg>
